X: 34704
T: Road To Garrison, The
R: reel
M: 4/4
K: Dmajor
|:A3B A2FA|BFAF egfe|dAAA FAAF|GEAG FADF|
A3B A2FA|BFAF egfe|dBBB A2dB|1 AFEG FDE/F/G:|2 AFEG FDDA||
|:d3f afff|fabf afef|dfff Adfa|bfaf egfe|
defg afff|fgeg fedB|A3B A2dB|1 AFEG FDDA:|2 AFEG FDE/F/G||

